X:2896
T:Jerakina
C:anon.
O:Greece
Z:Transcribed by Frank Nordberg - http://www.musicaviva.com
F:http://abc.musicaviva.com/tunes/greece/jerakina.abc
M:7/8
L:1/8
K:D
"D"F2G AB AG|"D"F3-F4|"D"F2G AB AG|"D"F2E FE D2|
"Bm"D3 EF ED|"A"E3-E4|"D"F3 "A7"EF ED|"D"D2F FG AG|
"D"F2F "A7"E2 ED|"D"F3 FG AG|"D"F2F "A7"E2 E2|"D"D3 "_tune in lowest part"[FA][GB] [Ac][GB]|
"D"[F2A2][FA] "A7"[E2G2] [EG][DF]|"D"[F3A3] [FA][GB] [Ac][GB]|"D"[F2A2][FA] "A7"[E2G2] [E2G2]|"D""D"[D3F3]-[D2F2]|]
W:
W:
W:  From Musica Viva - http://www.musicaviva.com
W:  the Internet center for free sheet music downloads.
